<?xml version="1.0" encoding="UTF-8"?>
<map version="1.10" tiledversion="1.12.2-2-geb83ddb9" orientation="orthogonal" renderorder="left-up" width="20" height="20" tilewidth="16" tileheight="16" infinite="0" nextlayerid="4" nextobjectid="1">
 <tileset firstgid="1" source="tileSheet.tsx"/>
 <layer id="2" name="Floor" width="20" height="20" locked="1">
  <data encoding="csv">
0,0,0,0,0,0,0,0,0,0,0,0,0,0,0,0,0,0,0,0,
0,5,6,6,6,6,6,6,6,6,6,6,6,6,6,6,6,6,8,0,
0,14,9,9,9,9,9,9,9,9,9,9,9,9,9,9,9,9,7,0,
0,14,9,9,9,9,9,9,9,9,9,9,9,9,9,9,9,9,7,0,
0,14,9,9,9,9,9,9,9,9,9,9,9,9,9,9,9,9,7,0,
0,14,9,9,9,9,9,9,9,9,9,9,9,9,9,9,9,9,7,0,
0,14,9,9,9,9,9,9,9,9,9,9,9,9,9,9,9,9,7,0,
0,14,9,9,9,9,9,9,9,9,9,9,9,9,9,9,9,9,7,0,
0,14,9,9,9,9,9,9,9,9,9,9,9,9,9,9,9,9,7,0,
0,14,9,9,9,9,9,9,9,9,9,9,9,9,9,9,9,9,7,0,
0,14,9,9,9,9,9,9,9,9,9,9,9,9,9,9,9,9,7,0,
0,14,9,9,9,9,9,9,9,9,9,9,9,9,9,9,9,9,7,0,
0,14,9,9,9,9,9,9,9,9,9,9,9,9,9,9,9,9,7,0,
0,14,9,9,9,9,9,9,9,9,9,9,9,9,9,9,9,9,7,0,
0,14,9,9,9,9,9,9,9,9,9,9,9,9,9,9,9,9,7,0,
0,14,9,9,9,9,9,9,9,9,9,9,9,9,9,9,9,9,7,0,
0,14,9,9,9,9,9,9,9,9,9,9,9,9,9,9,9,9,7,0,
0,14,9,9,9,9,9,9,9,9,9,9,9,9,9,9,9,9,7,0,
0,17,15,15,15,15,15,15,15,15,15,15,15,15,15,15,15,15,16,0,
0,0,0,0,0,0,0,0,0,0,0,0,0,0,0,0,0,0,0,0
</data>
 </layer>
 <layer id="1" name="Walls" width="20" height="20" locked="1">
  <data encoding="csv">
3,3,3,3,3,3,3,3,3,3,3,3,3,3,3,3,3,3,3,3,
3,0,0,0,0,0,0,0,0,0,0,0,0,0,0,0,0,0,0,3,
3,0,0,0,0,0,0,0,0,0,0,0,0,0,0,0,0,0,0,3,
3,0,0,0,0,0,0,0,0,0,0,0,0,0,0,0,0,0,0,3,
3,0,0,0,3,3,0,0,0,0,0,0,0,0,3,3,0,0,0,3,
3,0,0,0,3,3,0,0,0,0,0,0,0,0,3,3,0,0,0,3,
3,0,0,0,0,0,0,0,0,0,0,0,0,0,0,0,0,0,0,3,
3,0,0,0,0,0,0,3,0,0,0,0,3,0,0,0,0,0,0,3,
3,0,0,0,0,0,0,0,0,0,0,0,0,0,0,0,0,0,0,3,
3,0,0,0,0,0,0,0,0,3,3,0,0,0,0,0,0,0,0,3,
3,0,0,0,0,0,0,0,0,3,3,0,0,0,0,0,0,0,0,3,
3,0,0,0,0,0,0,0,0,0,0,0,0,0,0,0,0,0,0,3,
3,0,0,0,0,0,0,3,0,0,0,0,3,0,0,0,0,0,0,3,
3,0,0,0,0,0,0,0,0,0,0,0,0,0,0,0,0,0,0,3,
3,0,0,0,3,3,0,0,0,0,0,0,0,0,3,3,0,0,0,3,
3,0,0,0,3,3,0,0,0,0,0,0,0,0,3,3,0,0,0,3,
3,0,0,0,0,0,0,0,0,0,0,0,0,0,0,0,0,0,0,3,
3,0,0,0,0,0,0,0,0,0,0,0,0,0,0,0,0,0,0,3,
3,0,0,0,0,0,0,0,0,0,0,0,0,0,0,0,0,0,0,3,
3,3,3,3,3,3,3,3,3,3,3,3,3,3,3,3,3,3,3,3
</data>
 </layer>
 <layer id="3" name="Bricks" width="20" height="20">
  <data encoding="csv">
0,0,0,0,0,0,0,0,0,0,0,0,0,0,0,0,0,0,0,0,
0,0,0,0,1,0,0,10,10,10,0,1,0,10,10,10,0,0,0,0,
0,0,10,10,10,10,10,10,0,10,10,1,1,0,10,10,10,10,0,0,
0,0,10,10,0,0,1,0,10,10,0,1,1,10,10,0,0,10,0,0,
0,1,10,10,0,0,0,10,10,0,10,1,1,1,0,0,0,10,10,0,
0,1,10,0,0,0,10,10,0,10,10,10,10,0,0,0,0,10,10,0,
0,0,10,0,0,10,10,0,0,0,10,0,10,10,10,0,10,10,10,0,
0,1,1,10,10,10,0,0,10,10,10,10,0,0,10,10,10,10,10,0,
0,0,1,1,10,10,1,0,10,0,0,10,10,10,10,10,10,0,0,0,
0,0,0,10,10,10,1,10,10,0,0,10,0,0,10,10,1,1,1,0,
0,1,1,1,1,10,1,10,10,0,0,10,10,10,10,10,1,1,1,0,
0,0,0,10,10,0,0,0,10,10,0,10,0,0,10,10,10,0,1,0,
0,1,1,1,1,10,0,0,0,10,1,10,0,0,10,10,1,1,0,0,
0,0,0,1,0,10,10,10,0,1,1,10,10,10,10,1,1,10,10,0,
0,1,1,1,0,0,0,10,10,1,1,1,1,1,1,0,10,10,1,0,
0,1,1,1,0,0,10,10,0,10,0,1,1,0,0,0,10,10,1,0,
0,0,1,10,10,0,0,10,10,10,10,10,10,0,0,10,10,10,0,0,
0,0,1,1,1,10,10,10,10,10,10,0,10,10,10,10,10,10,0,0,
0,0,0,0,1,0,0,10,10,10,10,10,0,1,1,0,0,0,0,0,
0,0,0,0,0,0,0,0,0,0,0,0,0,0,0,0,0,0,0,0
</data>
 </layer>
</map>
