<?xml version="1.0" encoding="UTF-8"?>
<map version="1.10" tiledversion="1.12.2-2-geb83ddb9" orientation="orthogonal" renderorder="left-up" width="20" height="20" tilewidth="16" tileheight="16" infinite="0" nextlayerid="2" nextobjectid="1">
 <tileset firstgid="1" source="bombermantiles.tsx"/>
 <layer id="1" name="Tile Layer 1" width="20" height="20">
  <data encoding="csv">
75,75,75,75,75,75,75,75,75,75,75,75,75,75,75,75,75,75,75,75,
75,151,151,151,151,151,151,151,151,151,151,151,151,151,151,151,151,151,151,75,
75,151,151,151,151,151,151,151,151,151,151,151,151,151,151,151,151,151,151,75,
75,151,151,151,151,151,151,151,151,151,151,151,151,151,151,151,151,151,151,75,
75,151,151,151,151,151,151,151,151,151,151,151,151,151,151,151,151,151,151,75,
75,151,151,151,151,151,151,151,151,151,151,151,151,151,151,151,151,151,151,75,
75,151,151,151,151,151,151,151,151,151,151,151,151,151,151,151,151,151,151,75,
75,151,151,151,151,151,151,151,151,151,151,151,151,151,151,151,151,151,151,75,
75,151,151,151,151,151,151,151,151,151,151,151,151,151,151,151,151,151,151,75,
75,151,151,151,151,151,151,151,151,151,151,151,151,151,151,151,151,151,151,75,
75,151,151,151,151,151,151,151,151,151,151,151,151,151,151,151,151,151,151,75,
75,151,151,151,151,151,151,151,151,151,151,151,151,151,151,151,151,151,151,75,
75,151,151,151,151,151,151,151,151,151,151,151,151,151,151,151,151,151,151,75,
75,151,151,151,151,151,151,151,151,151,151,151,151,151,151,151,151,151,151,75,
75,151,151,151,151,151,151,151,151,151,151,151,151,151,151,151,151,151,151,75,
75,151,151,151,151,151,151,151,151,151,151,151,151,151,151,151,151,151,151,75,
75,151,151,151,151,151,151,151,151,151,151,151,151,151,151,151,151,151,151,75,
75,151,151,151,151,151,151,151,151,151,151,151,151,151,151,151,151,151,151,75,
75,151,151,151,151,151,151,151,151,151,151,151,151,151,151,151,151,151,151,75,
75,75,75,75,75,75,75,75,75,75,75,75,75,75,75,75,75,75,75,75
</data>
 </layer>
</map>
